X: 31122
T: Paddy Fahey's
R: reel
M: 4/4
K: Gmajor
_B2dB ~c2dc|BG~G2 DE=FD|GABG c2dc|BGAF DGGA|
(3Bcd Bd ~c3d|BG~G2 DE=FD|GABG ccdc|1 BGAF G3A:|2 BGAF G2 (3ABc||
|:dggf dgBg|dgag fdcB|ce=f2 cfAf|c=fag fdcA|
dg~g2 dgBg|dgag fdef|g2ag fage|1 fdcA G2Bc:|2 fdcA G3A||
BABd c2dc|BG~G2 D=F~F2|EccB cedc|BDFA GFGA|
_BABG c2dc|BG~G2 D=F~F2|Ec~c2 cedc|BdAB G3B:|
|:dg~g2 dg~g2|gbaf gdcA|c=f~f2 c=f~f2|=fage fdcA|
dg~g2 dg~g2|gbag fdef|gdef gbag|fdcA BGG2:|
B2dB c2dc|BGG=F DEFD|BcdB c2dc|BGG=F DGGA|
B2dB c2dc|BGG=F DEFD|BcdB cedc|BGA=F DGG2:|
|:dg~g2 dgBg|dgba gedB|c=f~f2 cfAf|c=fag fedc|
dg~g2 dgBg|dgba gdef|gbag fdeg|fdcA AGG2:|
(3Bcd Bd c2dc|BGG=F DEFD|GBdB c2dc|BGAF ~G3A|
BDGB c2dc|BGG=F DEFD|GBdB c2dc|BGAF ~G3z:|
|:dg~g2 dcBc|dgag fdcB|c=f~f2 cfA_B|c=fag fcBc|
dg~g2 dcBc|dgag fdef|gbag fd (3efg|fdcA ~G3z:|
B2dB c2Bc|dGG=F DEFG|BcdB c2Bc|dGG=F DGGA|
(3Bcd (3Bcd c2Bc|dGG=F DEFG|BcdB cedc|BGA=F DGG2:|
|:dg~g2 dgbg|(3gab ag fdcA|cf=~f2 cfaf|c=fag fedc|
dg~g2 dg~g2|bgag fdef|gbag fdeg|fdcA G4:|

